X:1
T:Under the Blood (Hoffman)
T:Under the Blood (Hoffman)
T:Elisha Albright Hoffman
T:Elisha Albright Hoffman, 1896
T:Public Domain Courtesy of the Cyber Hymnal™
C:Elisha Albright Hoffman
Z:Public Domain
Z:Courtesy of the Cyber Hymnal™
%%score ( 1 2 ) ( 3 4 )
L:1/8
Q:1/4=104
M:4/4
K:G
V:1 treble 
V:2 treble 
V:3 bass 
V:4 bass 
V:1
 [DG]2 [DG]2 (B>A) [DG]2 | [CE]2 [CG]2 [B,D]4 | [Gd]2 [Gd]2 (B>A) [DG]2 | [DA]2 [GA]2 [FA]4 | %4
w: 1.~I have per- * fect|peace to- day,|All my sins * are|washed a- way;|
w: 2.~What a work * the|Lord has done!|What a work * of|grace be- gun!|
w: 3.~Won- drous is * God’s|grace to me,|Mak- ing me * for-|ev- er free,|
w: 4.~So in glad- * ness|I go on,|Till the Mas- * ter’s|work is done,|
 [DG]2 [DG]2 (B>A) [DG]2 | [CE]2 [CG]2 [B,D]4 | [Dd]2 [Dd]2 (B>A) [DG]2 | [GB]2 [DA]2 [DG]4 || %8
w: Hid- ing ’neath * the|crim- son blood,|I am re- * con-|ciled to God.|
w: All my sins * are|co- vered o’er;|He re- mem- * bers|them no more.|
w: Sanc- ti- fy- * ing|me to God,|Thro’ the all * pre-|vail- ing blood.|
w: Trust- ing in * a-|ton- ing blood,|Walk- ing in * the|love of God.|
"^Refrain" [DG]2 [EG]>[CE] [B,G]4 | [GB]2 [GB]>[DG] [GB]4 | [Gd]2 [Gd]>[Gd] [Gd]2 [GB]>[FA] | %11
w: |||
w: |||
w: |||
w: |||
 [EG]2 G(3:2:2[FA][GB] [FA]4 x/24 | [DG]2 [EG]>[CE] [B,G]4 | [GB]2 [GB]>[DG] [GB]4 | %14
w: |||
w: |||
w: |||
w: |||
 [Gd]2 [Gd]>[Gd] [Gd]2 [GB]>G | [FA]2 (3[DA][DG][DA] [DG]4 |] %16
w: ||
w: ||
w: ||
w: ||
V:2
 x4 G2 x2 | x8 | x4 G2 x2 | x8 | x4 G2 x2 | x8 | x4 D2 x2 | x8 || x8 | x8 | x8 | %11
 x49/24 (3:2:1G x137/24 | x8 | x8 | x15/2 G/ | x8 |] %16
V:3
 [G,B,]2 [G,B,]2 (D>C) [G,B,]2 | [C,G,]2 [E,G,]2 G,4 | [G,B,]2 [G,B,]2 (D>C) [G,B,]2 | %3
w: ~ ~ ~ * ~|~ ~ ~|~ ~ ~ * ~|
 [F,D]2 [E,^C]2 (D2 =C2) | [G,B,]2 [G,B,]2 (D>C) [G,B,]2 | [C,G,]2 [E,G,]2 G,4 | %6
w: ~ ~ ~ *|~ ~ ~ * ~|~ ~ ~|
 [G,B,]2 [G,B,]2 (D>C) [G,B,]2 | [D,D]2 [D,C]2 [G,,B,]4 || [G,B,]2 [C,C]>C, [G,,G,]4 | %9
w: ~ ~ ~ * ~|~ ~ ~|Un- der the blood,|
 [G,D]2 [G,D]>[G,B,] [G,D]4 | [G,B,]2 [G,B,]>[G,B,] [G,B,]2 [G,D]>[A,D] | %11
w: un- der the blood,|Par- don and cleans- ing I|
 [B,D]2 (3[B,D][A,D][G,E] [D,D]4 x3/8 | [G,B,]2 [C,C]>[C,G,] [G,,G,]4 | %13
w: found un- der the blood;|Un- der the blood,|
 [G,D]2 [G,D]>[G,B,] [G,D]4 | [G,B,]2 [G,B,]>[G,B,] [G,B,]2 [G,D]>[G,B,] | %15
w: un- der the blood,|There I for- ev- er Will|
 [D,C]2 (3[D,C][D,B,][D,C] [G,,B,]4 |] %16
w: hide, un- der the blood.|
V:4
 x4 G,2 x2 | x4 G,4 | x4 G,2 x2 | x4 D,4 | x4 G,2 x2 | x4 G,4 | x4 G,2 x2 | x8 || x7/2 C,/ x4 | %9
 x8 | x8 | x67/8 | x8 | x8 | x8 | x8 |] %16

